X: 268
T: Mai laopuo
L: 1/8
M: 2/4
K: F
f f/ f/ d A [I:setbarnb 1]| 
c3f | 
d c A G | 
F3z | 
f d f a | 
g dc2 | 
c f e d | 
c c/ A/ c d | 
c4 |]

@@@ Tune index: 9142
